; generated by PrusaSlicer 2.3.3+win64 on 2022-01-13 at 07:46:24 UTC

; 

; external perimeters extrusion width = 0.45mm
; perimeters extrusion width = 0.45mm
; infill extrusion width = 0.45mm
; solid infill extrusion width = 0.45mm
; top infill extrusion width = 0.40mm
; first layer extrusion width = 0.42mm

M73 P0 R40
M73 Q0 S41
M201 X1000 Y1000 Z200 E5000 ; sets maximum accelerations, mm/sec^2
M203 X200 Y200 Z12 E120 ; sets maximum feedrates, mm/sec
M204 P1250 R1250 T1250 ; sets acceleration (P, T) and retract acceleration (R), mm/sec^2
M205 X8.00 Y8.00 Z0.40 E4.50 ; sets the jerk limits, mm/sec
M205 S0 T0 ; sets the minimum extruding and travel feed rate, mm/sec
M107
;TYPE:Custom
M862.3 P "MK3S" ; printer model check
M862.1 P0.4 ; nozzle diameter check
M115 U3.9.3 ; tell printer latest fw version
G90 ; use absolute coordinates
M83 ; extruder relative mode
M104 S215 ; set extruder temp
M140 S60 ; set bed temp
M190 S60 ; wait for bed temp
M109 S215 ; wait for extruder temp
G28 W ; home all without mesh bed level
G80 ; mesh bed leveling
G1 Y-3.0 F1000.0 ; go outside print area
G92 E0.0
G1 X60.0 E9.0 F1000.0 ; intro line
M73 Q0 S40
G1 X100.0 E12.5 F1000.0 ; intro line
G92 E0.0
M221 S95

; Don't change E values below. Excessive value can damage the printer.
M907 E430 ; set extruder motor current
G21 ; set units to millimeters
G90 ; use absolute coordinates
M83 ; use relative distances for extrusion
M900 K0.05 ; Filament gcode LA 1.5
M900 K30 ; Filament gcode LA 1.0
;LAYER_CHANGE
;Z:0.2
;HEIGHT:0.2
;BEFORE_LAYER_CHANGE
G92 E0.0
;0.2


G1 E-0.80000 F2100.000
G1 Z0.400 F10800.000
;AFTER_LAYER_CHANGE
;0.2
G1 X108.084 Y67.440
G1 Z0.200
G1 E0.80000 F2100.000
M204 S1000
;TYPE:Skirt
;WIDTH:0.42
G1 F1200.000
G1 X108.420 Y66.845 E0.02142
G1 X108.912 Y66.371 E0.02142
G1 X109.518 Y66.055 E0.02142
G1 X110.185 Y65.926 E0.02130
G1 X139.704 Y65.923 E0.92555
G1 X140.595 Y66.098 E0.02849
G1 X141.359 Y66.597 E0.02860
G1 X141.876 Y67.344 E0.02849
G1 X142.076 Y68.230 E0.02849
G1 X142.077 Y141.704 E2.30371
G1 X141.916 Y142.560 E0.02731
G1 X141.578 Y143.158 E0.02154
G1 X141.085 Y143.632 E0.02142
G1 X140.475 Y143.947 E0.02154
G1 X139.800 Y144.075 E0.02154
G1 X110.289 Y144.077 E0.92531
G1 X109.440 Y143.916 E0.02708
G1 X108.830 Y143.568 E0.02201
G1 X108.351 Y143.061 E0.02190
G1 X108.040 Y142.435 E0.02190
G1 X107.923 Y141.743 E0.02201
G1 X107.923 Y68.296 E2.30287
G1 X108.073 Y67.499 E0.02543
; printing object 0-10V_simulator_top.stl id:0 copy 0
;WIPE_START
G1 F8640.000
G1 X108.420 Y66.845 E-0.17094
G1 X108.912 Y66.371 E-0.15776
G1 X109.518 Y66.055 E-0.15776
G1 X110.185 Y65.926 E-0.15689
G1 X110.690 Y65.926 E-0.11664
;WIPE_END
G1 E-0.04000 F2100.000
G1 Z0.600 F10800.000
G1 X111.087 Y69.087
G1 Z0.200
G1 E0.80000 F2100.000
;TYPE:Perimeter
G1 F1200.000
G1 X138.913 Y69.087 E0.87246
G1 X138.913 Y140.913 E2.25205
G1 X111.087 Y140.913 E0.87246
M73 P1 R40
M73 Q1 S40
G1 X111.087 Y69.147 E2.25017
G1 X110.710 Y68.710 F10800.000
;TYPE:External perimeter
G1 F1200.000
G1 X139.290 Y68.710 E0.89611
G1 X139.290 Y141.290 E2.27569
G1 X110.710 Y141.290 E0.89611
G1 X110.710 Y68.770 E2.27381
G1 X111.079 Y68.865 F10800.000
;WIPE_START
G1 F8640.000
G1 X114.001 Y68.763 E-0.76000
;WIPE_END
G1 E-0.04000 F2100.000
G1 Z0.600 F10800.000
G1 X138.037 Y69.200
G1 Z0.200
G1 E0.80000 F2100.000
;TYPE:Solid infill
;WIDTH:0.420327
G1 F1200.000
G1 X138.630 Y69.793 E0.02633
G1 X138.630 Y70.327 E0.01675
G1 X137.673 Y69.370 E0.04249
G1 X137.139 Y69.370 E0.01675
G1 X138.630 Y70.861 E0.06617
G1 X138.630 Y71.395 E0.01675
G1 X136.605 Y69.370 E0.08986
G1 X136.072 Y69.370 E0.01675
G1 X138.630 Y71.928 E0.11355
M73 P1 R39
G1 X138.630 Y72.462 E0.01675
G1 X135.538 Y69.370 E0.13724
G1 X135.004 Y69.370 E0.01675
G1 X138.630 Y72.996 E0.16092
G1 X138.630 Y73.530 E0.01675
G1 X134.470 Y69.370 E0.18461
G1 X133.937 Y69.370 E0.01675
G1 X138.630 Y74.063 E0.20830
G1 X138.630 Y74.597 E0.01675
G1 X133.403 Y69.370 E0.23198
G1 X132.869 Y69.370 E0.01675
G1 X138.630 Y75.131 E0.25567
G1 X138.630 Y75.665 E0.01675
G1 X132.335 Y69.370 E0.27936
G1 X131.802 Y69.370 E0.01675
G1 X138.630 Y76.198 E0.30305
G1 X138.630 Y76.732 E0.01675
G1 X131.268 Y69.370 E0.32673
G1 X130.734 Y69.370 E0.01675
G1 X138.630 Y77.266 E0.35042
G1 X138.630 Y77.799 E0.01675
G1 X130.201 Y69.370 E0.37411
G1 X129.667 Y69.370 E0.01675
G1 X138.630 Y78.333 E0.39779
G1 X138.630 Y78.867 E0.01675
G1 X129.133 Y69.370 E0.42148
G1 X128.599 Y69.370 E0.01675
G1 X138.630 Y79.401 E0.44517
G1 X138.630 Y79.934 E0.01675
G1 X128.066 Y69.370 E0.46886
G1 X127.532 Y69.370 E0.01675
G1 X138.630 Y80.468 E0.49254
M73 P2 R39
M73 Q2 S40
G1 X138.630 Y81.002 E0.01675
G1 X126.998 Y69.370 E0.51623
G1 X126.464 Y69.370 E0.01675
G1 X138.630 Y81.536 E0.53992
G1 X138.630 Y82.069 E0.01675
G1 X125.931 Y69.370 E0.56361
G1 X125.397 Y69.370 E0.01675
G1 X138.630 Y82.603 E0.58729
G1 X138.630 Y83.137 E0.01675
G1 X124.863 Y69.370 E0.61098
G1 X124.329 Y69.370 E0.01675
G1 X138.630 Y83.671 E0.63467
G1 X138.630 Y84.204 E0.01675
G1 X123.796 Y69.370 E0.65835
G1 X123.262 Y69.370 E0.01675
G1 X138.630 Y84.738 E0.68204
G1 X138.630 Y85.272 E0.01675
G1 X122.728 Y69.370 E0.70573
G1 X122.195 Y69.370 E0.01675
G1 X138.630 Y85.805 E0.72942
G1 X138.630 Y86.339 E0.01675
G1 X121.661 Y69.370 E0.75310
G1 X121.127 Y69.370 E0.01675
G1 X138.630 Y86.873 E0.77679
G1 X138.630 Y87.407 E0.01675
G1 X120.593 Y69.370 E0.80048
M73 Q2 S39
G1 X120.060 Y69.370 E0.01675
G1 X138.630 Y87.940 E0.82416
G1 X138.630 Y88.474 E0.01675
G1 X119.526 Y69.370 E0.84785
G1 X118.992 Y69.370 E0.01675
G1 X138.630 Y89.008 E0.87154
G1 X138.630 Y89.542 E0.01675
G1 X118.458 Y69.370 E0.89523
G1 X117.925 Y69.370 E0.01675
G1 X138.630 Y90.075 E0.91891
G1 X138.630 Y90.609 E0.01675
G1 X117.391 Y69.370 E0.94260
G1 X116.857 Y69.370 E0.01675
G1 X138.630 Y91.143 E0.96629
M73 P3 R39
M73 Q3 S39
G1 X138.630 Y91.677 E0.01675
G1 X116.323 Y69.370 E0.98997
G1 X115.790 Y69.370 E0.01675
G1 X138.630 Y92.210 E1.01366
G1 X138.630 Y92.744 E0.01675
G1 X115.256 Y69.370 E1.03735
G1 X114.722 Y69.370 E0.01675
G1 X138.630 Y93.278 E1.06104
G1 X138.630 Y93.812 E0.01675
G1 X114.188 Y69.370 E1.08472
G1 X113.655 Y69.370 E0.01675
G1 X138.630 Y94.345 E1.10841
G1 X138.630 Y94.879 E0.01675
G1 X113.121 Y69.370 E1.13210
G1 X112.587 Y69.370 E0.01675
G1 X138.630 Y95.413 E1.15579
G1 X138.630 Y95.946 E0.01675
G1 X112.054 Y69.370 E1.17947
G1 X111.520 Y69.370 E0.01675
G1 X138.630 Y96.480 E1.20316
G1 X138.630 Y97.014 E0.01675
G1 X111.370 Y69.754 E1.20981
G1 X111.370 Y70.287 E0.01675
G1 X138.630 Y97.548 E1.20981
G1 X138.630 Y98.081 E0.01675
G1 X111.370 Y70.821 E1.20981
M73 P4 R39
G1 X111.370 Y71.355 E0.01675
G1 X138.630 Y98.615 E1.20981
M73 Q4 S39
G1 X138.630 Y99.149 E0.01675
G1 X111.370 Y71.889 E1.20981
M73 P4 R38
G1 X111.370 Y72.422 E0.01675
G1 X138.630 Y99.683 E1.20981
G1 X138.630 Y100.216 E0.01675
G1 X111.370 Y72.956 E1.20981
G1 X111.370 Y73.490 E0.01675
G1 X138.630 Y100.750 E1.20981
G1 X138.630 Y101.284 E0.01675
G1 X111.370 Y74.024 E1.20981
G1 X111.370 Y74.557 E0.01675
G1 X138.630 Y101.818 E1.20981
G1 X138.630 Y102.351 E0.01675
G1 X111.370 Y75.091 E1.20981
G1 X111.370 Y75.625 E0.01675
G1 X138.630 Y102.885 E1.20981
G1 X138.630 Y103.419 E0.01675
G1 X111.370 Y76.158 E1.20981
G1 X111.370 Y76.692 E0.01675
G1 X138.630 Y103.952 E1.20981
G1 X138.630 Y104.486 E0.01675
G1 X111.370 Y77.226 E1.20981
G1 X111.370 Y77.760 E0.01675
G1 X138.630 Y105.020 E1.20981
M73 P5 R38
M73 Q5 S39
G1 X138.630 Y105.554 E0.01675
G1 X111.370 Y78.293 E1.20981
M73 Q5 S38
G1 X111.370 Y78.827 E0.01675
G1 X138.630 Y106.087 E1.20981
G1 X138.630 Y106.621 E0.01675
G1 X111.370 Y79.361 E1.20981
G1 X111.370 Y79.895 E0.01675
G1 X138.630 Y107.155 E1.20981
G1 X138.630 Y107.689 E0.01675
G1 X111.370 Y80.428 E1.20981
G1 X111.370 Y80.962 E0.01675
G1 X138.630 Y108.222 E1.20981
G1 X138.630 Y108.756 E0.01675
G1 X111.370 Y81.496 E1.20981
G1 X111.370 Y82.030 E0.01675
G1 X138.630 Y109.290 E1.20981
G1 X138.630 Y109.824 E0.01675
G1 X111.370 Y82.563 E1.20981
G1 X111.370 Y83.097 E0.01675
G1 X138.630 Y110.357 E1.20981
G1 X138.630 Y110.891 E0.01675
G1 X111.370 Y83.631 E1.20981
G1 X111.370 Y84.164 E0.01675
G1 X138.630 Y111.425 E1.20981
M73 P6 R38
M73 Q6 S38
G1 X138.630 Y111.958 E0.01675
G1 X111.370 Y84.698 E1.20981
G1 X111.370 Y85.232 E0.01675
G1 X138.630 Y112.492 E1.20981
G1 X138.630 Y113.026 E0.01675
G1 X111.370 Y85.766 E1.20981
G1 X111.370 Y86.299 E0.01675
G1 X138.630 Y113.560 E1.20981
G1 X138.630 Y114.093 E0.01675
G1 X111.370 Y86.833 E1.20981
G1 X111.370 Y87.367 E0.01675
G1 X138.630 Y114.627 E1.20981
G1 X138.630 Y115.161 E0.01675
G1 X111.370 Y87.901 E1.20981
G1 X111.370 Y88.434 E0.01675
G1 X138.630 Y115.695 E1.20981
M73 P6 R37
G1 X138.630 Y116.228 E0.01675
G1 X111.370 Y88.968 E1.20981
G1 X111.370 Y89.502 E0.01675
G1 X138.630 Y116.762 E1.20981
G1 X138.630 Y117.296 E0.01675
G1 X111.370 Y90.036 E1.20981
G1 X111.370 Y90.569 E0.01675
G1 X138.630 Y117.830 E1.20981
M73 P7 R37
G1 X138.630 Y118.363 E0.01675
G1 X111.370 Y91.103 E1.20981
M73 Q7 S38
G1 X111.370 Y91.637 E0.01675
G1 X138.630 Y118.897 E1.20981
G1 X138.630 Y119.431 E0.01675
G1 X111.370 Y92.170 E1.20981
G1 X111.370 Y92.704 E0.01675
G1 X138.630 Y119.964 E1.20981
G1 X138.630 Y120.498 E0.01675
G1 X111.370 Y93.238 E1.20981
G1 X111.370 Y93.772 E0.01675
G1 X138.630 Y121.032 E1.20981
G1 X138.630 Y121.566 E0.01675
G1 X111.370 Y94.305 E1.20981
M73 Q7 S37
G1 X111.370 Y94.839 E0.01675
G1 X138.630 Y122.099 E1.20981
G1 X138.630 Y122.633 E0.01675
G1 X111.370 Y95.373 E1.20981
G1 X111.370 Y95.907 E0.01675
G1 X138.630 Y123.167 E1.20981
G1 X138.630 Y123.701 E0.01675
G1 X111.370 Y96.440 E1.20981
G1 X111.370 Y96.974 E0.01675
G1 X138.630 Y124.234 E1.20981
M73 P8 R37
G1 X138.630 Y124.768 E0.01675
G1 X111.370 Y97.508 E1.20981
M73 Q8 S37
G1 X111.370 Y98.042 E0.01675
G1 X138.630 Y125.302 E1.20981
G1 X138.630 Y125.836 E0.01675
G1 X111.370 Y98.575 E1.20981
G1 X111.370 Y99.109 E0.01675
G1 X138.630 Y126.369 E1.20981
G1 X138.630 Y126.903 E0.01675
G1 X111.370 Y99.643 E1.20981
G1 X111.370 Y100.177 E0.01675
G1 X138.630 Y127.437 E1.20981
G1 X138.630 Y127.970 E0.01675
G1 X111.370 Y100.710 E1.20981
G1 X111.370 Y101.244 E0.01675
G1 X138.630 Y128.504 E1.20981
G1 X138.630 Y129.038 E0.01675
G1 X111.370 Y101.778 E1.20981
G1 X111.370 Y102.311 E0.01675
G1 X138.630 Y129.572 E1.20981
G1 X138.630 Y130.105 E0.01675
G1 X111.370 Y102.845 E1.20981
G1 X111.370 Y103.379 E0.01675
G1 X138.630 Y130.639 E1.20981
G1 X138.630 Y131.173 E0.01675
G1 X111.370 Y103.913 E1.20981
M73 P9 R37
G1 X111.370 Y104.446 E0.01675
G1 X138.630 Y131.707 E1.20981
M73 P9 R36
M73 Q9 S37
G1 X138.630 Y132.240 E0.01675
G1 X111.370 Y104.980 E1.20981
G1 X111.370 Y105.514 E0.01675
G1 X138.630 Y132.774 E1.20981
G1 X138.630 Y133.308 E0.01675
G1 X111.370 Y106.048 E1.20981
G1 X111.370 Y106.581 E0.01675
G1 X138.630 Y133.842 E1.20981
G1 X138.630 Y134.375 E0.01675
G1 X111.370 Y107.115 E1.20981
G1 X111.370 Y107.649 E0.01675
G1 X138.630 Y134.909 E1.20981
G1 X138.630 Y135.443 E0.01675
G1 X111.370 Y108.183 E1.20981
G1 X111.370 Y108.716 E0.01675
G1 X138.630 Y135.976 E1.20981
G1 X138.630 Y136.510 E0.01675
G1 X111.370 Y109.250 E1.20981
G1 X111.370 Y109.784 E0.01675
G1 X138.630 Y137.044 E1.20981
G1 X138.630 Y137.578 E0.01675
G1 X111.370 Y110.317 E1.20981
M73 P10 R36
G1 X111.370 Y110.851 E0.01675
G1 X138.630 Y138.111 E1.20981
M73 Q10 S36
G1 X138.630 Y138.645 E0.01675
G1 X111.370 Y111.385 E1.20981
G1 X111.370 Y111.919 E0.01675
G1 X138.630 Y139.179 E1.20981
G1 X138.630 Y139.713 E0.01675
G1 X111.370 Y112.452 E1.20981
G1 X111.370 Y112.986 E0.01675
G1 X138.630 Y140.246 E1.20981
G1 X138.630 Y140.630 E0.01204
G1 X138.480 Y140.630 E0.00471
G1 X111.370 Y113.520 E1.20316
G1 X111.370 Y114.054 E0.01675
G1 X137.946 Y140.630 E1.17947
G1 X137.413 Y140.630 E0.01675
G1 X111.370 Y114.587 E1.15578
G1 X111.370 Y115.121 E0.01675
G1 X136.879 Y140.630 E1.13210
G1 X136.345 Y140.630 E0.01675
G1 X111.370 Y115.655 E1.10841
G1 X111.370 Y116.189 E0.01675
G1 X135.811 Y140.630 E1.08472
G1 X135.278 Y140.630 E0.01675
G1 X111.370 Y116.722 E1.06103
G1 X111.370 Y117.256 E0.01675
G1 X134.744 Y140.630 E1.03735
M73 P11 R36
G1 X134.210 Y140.630 E0.01675
G1 X111.370 Y117.790 E1.01366
M73 Q11 S36
G1 X111.370 Y118.323 E0.01675
G1 X133.677 Y140.630 E0.98997
G1 X133.143 Y140.630 E0.01675
G1 X111.370 Y118.857 E0.96629
G1 X111.370 Y119.391 E0.01675
G1 X132.609 Y140.630 E0.94260
G1 X132.075 Y140.630 E0.01675
G1 X111.370 Y119.925 E0.91891
G1 X111.370 Y120.458 E0.01675
G1 X131.542 Y140.630 E0.89522
G1 X131.008 Y140.630 E0.01675
G1 X111.370 Y120.992 E0.87154
G1 X111.370 Y121.526 E0.01675
G1 X130.474 Y140.630 E0.84785
G1 X129.940 Y140.630 E0.01675
G1 X111.370 Y122.060 E0.82416
M73 P11 R35
G1 X111.370 Y122.593 E0.01675
G1 X129.407 Y140.630 E0.80048
G1 X128.873 Y140.630 E0.01675
G1 X111.370 Y123.127 E0.77679
G1 X111.370 Y123.661 E0.01675
G1 X128.339 Y140.630 E0.75310
G1 X127.805 Y140.630 E0.01675
G1 X111.370 Y124.195 E0.72941
G1 X111.370 Y124.728 E0.01675
G1 X127.272 Y140.630 E0.70573
G1 X126.738 Y140.630 E0.01675
G1 X111.370 Y125.262 E0.68204
G1 X111.370 Y125.796 E0.01675
G1 X126.204 Y140.630 E0.65835
G1 X125.671 Y140.630 E0.01675
G1 X111.370 Y126.329 E0.63467
M73 P12 R35
G1 X111.370 Y126.863 E0.01675
G1 X125.137 Y140.630 E0.61098
G1 X124.603 Y140.630 E0.01675
G1 X111.370 Y127.397 E0.58729
G1 X111.370 Y127.931 E0.01675
G1 X124.069 Y140.630 E0.56360
M73 Q12 S36
G1 X123.536 Y140.630 E0.01675
G1 X111.370 Y128.464 E0.53992
G1 X111.370 Y128.998 E0.01675
G1 X123.002 Y140.630 E0.51623
G1 X122.468 Y140.630 E0.01675
G1 X111.370 Y129.532 E0.49254
G1 X111.370 Y130.066 E0.01675
G1 X121.934 Y140.630 E0.46885
G1 X121.401 Y140.630 E0.01675
G1 X111.370 Y130.599 E0.44517
G1 X111.370 Y131.133 E0.01675
G1 X120.867 Y140.630 E0.42148
G1 X120.333 Y140.630 E0.01675
G1 X111.370 Y131.667 E0.39779
G1 X111.370 Y132.201 E0.01675
G1 X119.799 Y140.630 E0.37411
G1 X119.266 Y140.630 E0.01675
G1 X111.370 Y132.734 E0.35042
G1 X111.370 Y133.268 E0.01675
G1 X118.732 Y140.630 E0.32673
G1 X118.198 Y140.630 E0.01675
G1 X111.370 Y133.802 E0.30304
G1 X111.370 Y134.335 E0.01675
G1 X117.665 Y140.630 E0.27936
G1 X117.131 Y140.630 E0.01675
G1 X111.370 Y134.869 E0.25567
G1 X111.370 Y135.403 E0.01675
G1 X116.597 Y140.630 E0.23198
G1 X116.063 Y140.630 E0.01675
G1 X111.370 Y135.937 E0.20830
G1 X111.370 Y136.470 E0.01675
G1 X115.530 Y140.630 E0.18461
G1 X114.996 Y140.630 E0.01675
G1 X111.370 Y137.004 E0.16092
M73 Q12 S35
G1 X111.370 Y137.538 E0.01675
G1 X114.462 Y140.630 E0.13723
G1 X113.928 Y140.630 E0.01675
G1 X111.370 Y138.072 E0.11355
G1 X111.370 Y138.605 E0.01675
G1 X113.395 Y140.630 E0.08986
G1 X112.861 Y140.630 E0.01675
G1 X111.370 Y139.139 E0.06617
G1 X111.370 Y139.673 E0.01675
G1 X112.327 Y140.630 E0.04248
G1 X111.793 Y140.630 E0.01675
G1 X111.200 Y140.037 E0.02633
; stop printing object 0-10V_simulator_top.stl id:0 copy 0
M106 S84.15
;LAYER_CHANGE
;Z:0.4
;HEIGHT:0.2
;BEFORE_LAYER_CHANGE
G92 E0.0
;0.4


;WIPE_START
G1 F8640.000
G1 X111.793 Y140.630 E-0.19372
G1 X112.327 Y140.630 E-0.12324
G1 X111.370 Y139.673 E-0.31260
G1 X111.370 Y139.139 E-0.12324
G1 X111.392 Y139.161 E-0.00720
;WIPE_END
G1 E-0.04000 F2100.000
G1 Z0.600 F10800.000
;AFTER_LAYER_CHANGE
;0.4
G1 X109.440 Y143.916
G1 Z0.400
G1 E0.80000 F2100.000
;TYPE:Skirt
;WIDTH:0.42
G1 F3000.000
G1 X108.830 Y143.568 E0.02201
G1 X108.351 Y143.061 E0.02190
G1 X108.040 Y142.435 E0.02190
G1 X107.923 Y141.743 E0.02201
G1 X107.923 Y68.296 E2.30287
G1 X108.084 Y67.440 E0.02731
G1 X108.420 Y66.845 E0.02142
G1 X108.912 Y66.371 E0.02142
G1 X109.518 Y66.055 E0.02142
G1 X110.185 Y65.926 E0.02130
G1 X139.704 Y65.923 E0.92555
G1 X140.595 Y66.098 E0.02849
G1 X141.359 Y66.597 E0.02860
G1 X141.876 Y67.344 E0.02849
G1 X142.076 Y68.230 E0.02849
G1 X142.077 Y141.704 E2.30371
G1 X141.916 Y142.560 E0.02731
G1 X141.578 Y143.158 E0.02154
G1 X141.085 Y143.632 E0.02142
G1 X140.475 Y143.947 E0.02154
G1 X139.800 Y144.075 E0.02154
G1 X110.289 Y144.077 E0.92531
G1 X109.499 Y143.927 E0.02520
; printing object 0-10V_simulator_top.stl id:0 copy 0
;WIPE_START
G1 F8640.000
G1 X108.830 Y143.568 E-0.17527
G1 X108.351 Y143.061 E-0.16124
G1 X108.040 Y142.435 E-0.16124
G1 X107.923 Y141.743 E-0.16211
G1 X107.923 Y141.309 E-0.10012
;WIPE_END
G1 E-0.04000 F2100.000
