; generated by PrusaSlicer 2.3.3+win64 on 2021-12-13 at 07:42:16 UTC

; 

; external perimeters extrusion width = 0.45mm
; perimeters extrusion width = 0.45mm
; infill extrusion width = 0.45mm
; solid infill extrusion width = 0.45mm
; top infill extrusion width = 0.40mm
; first layer extrusion width = 0.42mm

M73 P0 R170
M73 Q0 S171
M201 X1000 Y1000 Z200 E5000 ; sets maximum accelerations, mm/sec^2
M203 X200 Y200 Z12 E120 ; sets maximum feedrates, mm/sec
M204 P1250 R1250 T1250 ; sets acceleration (P, T) and retract acceleration (R), mm/sec^2
M205 X8.00 Y8.00 Z0.40 E4.50 ; sets the jerk limits, mm/sec
M205 S0 T0 ; sets the minimum extruding and travel feed rate, mm/sec
M107
;TYPE:Custom
M862.3 P "MK3S" ; printer model check
M862.1 P0.4 ; nozzle diameter check
M115 U3.9.3 ; tell printer latest fw version
G90 ; use absolute coordinates
M83 ; extruder relative mode
M104 S215 ; set extruder temp
M140 S60 ; set bed temp
M190 S60 ; wait for bed temp
M109 S215 ; wait for extruder temp
G28 W ; home all without mesh bed level
G80 ; mesh bed leveling
G1 Y-3.0 F1000.0 ; go outside print area
G92 E0.0
G1 X60.0 E9.0 F1000.0 ; intro line
G1 X100.0 E12.5 F1000.0 ; intro line
G92 E0.0
M221 S95

; Don't change E values below. Excessive value can damage the printer.
M907 E430 ; set extruder motor current
G21 ; set units to millimeters
G90 ; use absolute coordinates
M83 ; use relative distances for extrusion
M900 K0.05 ; Filament gcode LA 1.5
M900 K30 ; Filament gcode LA 1.0
;LAYER_CHANGE
;Z:0.2
;HEIGHT:0.2
;BEFORE_LAYER_CHANGE
G92 E0.0
;0.2


G1 E-0.80000 F2100.000
G1 Z0.400 F10800.000
;AFTER_LAYER_CHANGE
;0.2
G1 X89.111 Y48.559
G1 Z0.200
G1 E0.80000 F2100.000
M204 S1000
;TYPE:Skirt
;WIDTH:0.42
G1 F1200.000
G1 X89.855 Y47.468 E0.04140
G1 X90.544 Y46.798 E0.03013
G1 X91.337 Y46.282 E0.02965
G1 X92.618 Y45.779 E0.04317
G1 X93.797 Y45.625 E0.03727
G1 X156.104 Y45.623 E1.95358
G1 X157.259 Y45.750 E0.03644
G1 X158.240 Y46.073 E0.03239
G1 X159.245 Y46.648 E0.03629
G1 X159.635 Y46.957 E0.01562
G1 X160.337 Y47.689 E0.03179
G1 X160.958 Y48.694 E0.03704
G1 X161.339 Y49.789 E0.03633
G1 X161.475 Y50.901 E0.03514
G1 X161.477 Y159.011 E3.38973
M73 P0 R169
G1 X161.335 Y160.226 E0.03834
G1 X160.889 Y161.441 E0.04059
G1 X160.145 Y162.532 E0.04140
G1 X159.456 Y163.202 E0.03013
G1 X158.660 Y163.720 E0.02977
G1 X157.374 Y164.223 E0.04329
G1 X156.180 Y164.376 E0.03775
G1 X93.877 Y164.377 E1.95346
G1 X92.670 Y164.234 E0.03811
G1 X91.459 Y163.789 E0.04047
G1 X90.365 Y163.043 E0.04151
G1 X89.696 Y162.353 E0.03013
G1 X89.176 Y161.553 E0.02989
G1 X88.675 Y160.267 E0.04329
G1 X88.523 Y159.050 E0.03846
G1 X88.523 Y50.989 E3.38818
G1 X88.665 Y49.774 E0.03834
G1 X89.090 Y48.615 E0.03871
; printing object scmp_top_2.stl id:0 copy 0
;WIPE_START
G1 F8640.000
G1 X89.855 Y47.468 E-0.31831
G1 X90.544 Y46.798 E-0.22190
G1 X91.337 Y46.282 E-0.21837
G1 X91.343 Y46.280 E-0.00142
;WIPE_END
G1 E-0.04000 F2100.000
G1 Z0.600 F10800.000
G1 X99.855 Y67.083
G1 Z0.200
G1 E0.80000 F2100.000
;TYPE:Perimeter
G1 F1200.000
G1 X100.656 Y66.803 E0.02662
G1 X101.456 Y66.713 E0.02523
G1 X148.544 Y66.713 E1.47642
G1 X149.344 Y66.803 E0.02523
G1 X150.145 Y67.083 E0.02662
G1 X150.864 Y67.535 E0.02662
G1 X151.465 Y68.136 E0.02662
G1 X151.917 Y68.855 E0.02662
G1 X152.197 Y69.656 E0.02662
G1 X152.287 Y70.456 E0.02523
G1 X152.287 Y139.544 E2.16622
G1 X152.197 Y140.344 E0.02523
G1 X151.917 Y141.145 E0.02662
G1 X151.465 Y141.864 E0.02662
G1 X150.864 Y142.465 E0.02662
G1 X150.145 Y142.917 E0.02662
G1 X149.344 Y143.197 E0.02662
G1 X148.544 Y143.287 E0.02523
G1 X101.456 Y143.287 E1.47642
G1 X100.656 Y143.197 E0.02523
G1 X99.855 Y142.917 E0.02662
G1 X99.136 Y142.465 E0.02662
G1 X98.535 Y141.864 E0.02662
G1 X98.083 Y141.145 E0.02662
G1 X97.803 Y140.344 E0.02662
G1 X97.713 Y139.544 E0.02523
G1 X97.713 Y70.456 E2.16622
G1 X97.803 Y69.656 E0.02523
G1 X98.083 Y68.855 E0.02662
G1 X98.535 Y68.136 E0.02662
G1 X99.136 Y67.535 E0.02662
G1 X99.804 Y67.115 E0.02474
G1 X100.005 Y67.435 F10800.000
;TYPE:External perimeter
G1 F1200.000
G1 X100.741 Y67.173 E0.02450
G1 X101.477 Y67.090 E0.02323
G1 X148.523 Y67.090 E1.47510
G1 X149.259 Y67.173 E0.02323
G1 X149.981 Y67.425 E0.02396
G1 X150.628 Y67.832 E0.02396
G1 X151.168 Y68.372 E0.02396
G1 X151.575 Y69.019 E0.02396
G1 X151.827 Y69.741 E0.02396
G1 X151.910 Y70.477 E0.02323
G1 X151.910 Y139.523 E2.16489
G1 X151.827 Y140.259 E0.02323
G1 X151.575 Y140.981 E0.02396
G1 X151.168 Y141.628 E0.02396
G1 X150.628 Y142.168 E0.02396
G1 X149.981 Y142.575 E0.02396
G1 X149.259 Y142.827 E0.02396
G1 X148.523 Y142.910 E0.02323
G1 X101.477 Y142.910 E1.47510
G1 X100.741 Y142.827 E0.02323
G1 X100.019 Y142.575 E0.02396
G1 X99.372 Y142.168 E0.02396
G1 X98.832 Y141.628 E0.02396
G1 X98.425 Y140.981 E0.02396
G1 X98.173 Y140.259 E0.02396
G1 X98.090 Y139.523 E0.02323
G1 X98.090 Y70.477 E2.16489
G1 X98.173 Y69.741 E0.02323
G1 X98.425 Y69.019 E0.02396
G1 X98.832 Y68.372 E0.02396
G1 X99.372 Y67.832 E0.02396
G1 X99.954 Y67.467 E0.02153
G1 X100.033 Y67.036 F10800.000
;WIPE_START
G1 F8640.000
G1 X100.741 Y67.173 E-0.19394
G1 X101.477 Y67.090 E-0.17110
G1 X103.187 Y67.090 E-0.39496
;WIPE_END
G1 E-0.04000 F2100.000
G1 Z0.600 F10800.000
G1 X91.747 Y50.509
G1 Z0.200
G1 E0.80000 F2100.000
;TYPE:Perimeter
G1 F1200.000
G1 X91.911 Y50.042 E0.01550
G1 X92.174 Y49.623 E0.01550
G1 X92.523 Y49.274 E0.01550
G1 X92.942 Y49.011 E0.01550
G1 X93.409 Y48.847 E0.01550
G1 X93.944 Y48.787 E0.01690
G1 X156.056 Y48.787 E1.94747
G1 X156.591 Y48.847 E0.01690
G1 X157.058 Y49.011 E0.01550
G1 X157.477 Y49.274 E0.01550
G1 X157.826 Y49.623 E0.01550
G1 X158.089 Y50.042 E0.01550
G1 X158.253 Y50.509 E0.01550
G1 X158.313 Y51.044 E0.01690
G1 X158.313 Y158.956 E3.38349
M73 Q0 S170
G1 X158.253 Y159.491 E0.01690
G1 X158.089 Y159.958 E0.01550
G1 X157.826 Y160.377 E0.01550
G1 X157.477 Y160.726 E0.01550
G1 X157.058 Y160.989 E0.01550
G1 X156.591 Y161.153 E0.01550
G1 X156.056 Y161.213 E0.01690
G1 X93.944 Y161.213 E1.94747
G1 X93.409 Y161.153 E0.01690
G1 X92.942 Y160.989 E0.01550
G1 X92.523 Y160.726 E0.01550
G1 X92.174 Y160.377 E0.01550
G1 X91.911 Y159.958 E0.01550
G1 X91.747 Y159.491 E0.01550
G1 X91.687 Y158.956 E0.01690
G1 X91.687 Y51.044 E3.38349
G1 X91.741 Y50.568 E0.01502
G1 X91.377 Y50.424 F10800.000
;TYPE:External perimeter
G1 F1200.000
G1 X91.569 Y49.877 E0.01817
G1 X91.877 Y49.387 E0.01817
G1 X92.287 Y48.977 E0.01817
G1 X92.777 Y48.669 E0.01817
G1 X93.324 Y48.477 E0.01817
G1 X93.923 Y48.410 E0.01889
G1 X156.077 Y48.410 E1.94879
M73 P0 R168
G1 X156.676 Y48.477 E0.01889
G1 X157.223 Y48.669 E0.01817
G1 X157.713 Y48.977 E0.01817
G1 X158.123 Y49.387 E0.01817
G1 X158.431 Y49.877 E0.01817
G1 X158.623 Y50.424 E0.01817
G1 X158.690 Y51.023 E0.01889
G1 X158.690 Y158.977 E3.38482
G1 X158.623 Y159.576 E0.01889
G1 X158.431 Y160.123 E0.01817
G1 X158.123 Y160.613 E0.01817
G1 X157.713 Y161.023 E0.01817
G1 X157.223 Y161.331 E0.01817
G1 X156.676 Y161.523 E0.01817
G1 X156.077 Y161.590 E0.01889
G1 X93.923 Y161.590 E1.94879
G1 X93.324 Y161.523 E0.01889
G1 X92.777 Y161.331 E0.01817
G1 X92.287 Y161.023 E0.01817
G1 X91.877 Y160.613 E0.01817
G1 X91.569 Y160.123 E0.01817
G1 X91.377 Y159.576 E0.01817
G1 X91.310 Y158.977 E0.01889
G1 X91.310 Y51.023 E3.38482
G1 X91.371 Y50.484 E0.01701
G1 X91.760 Y50.306 F10800.000
;WIPE_START
G1 F8640.000
G1 X91.569 Y49.877 E-0.14732
G1 X91.877 Y49.387 E-0.13378
G1 X92.287 Y48.977 E-0.13378
G1 X92.777 Y48.669 E-0.13378
G1 X93.324 Y48.477 E-0.13378
G1 X93.658 Y48.440 E-0.07754
;WIPE_END
G1 E-0.04000 F2100.000
G1 Z0.600 F10800.000
G1 X158.037 Y50.234
G1 Z0.200
G1 E0.80000 F2100.000
;TYPE:Solid infill
;WIDTH:0.420341
G1 F1200.000
G1 X157.298 Y49.496 E0.03277
G1 X156.935 Y49.267 E0.01349
G1 X156.528 Y49.125 E0.01352
G1 X156.377 Y49.108 E0.00478
G1 X157.992 Y50.723 E0.07170
G1 X158.030 Y51.060 E0.01064
G1 X158.030 Y51.295 E0.00737
G1 X155.805 Y49.070 E0.09876
G1 X155.271 Y49.070 E0.01675
G1 X158.030 Y51.829 E0.12244
G1 X158.030 Y52.363 E0.01675
G1 X154.737 Y49.070 E0.14613
G1 X154.204 Y49.070 E0.01675
G1 X158.030 Y52.896 E0.16982
G1 X158.030 Y53.430 E0.01675
G1 X153.670 Y49.070 E0.19351
G1 X153.136 Y49.070 E0.01675
G1 X158.030 Y53.964 E0.21720
G1 X158.030 Y54.498 E0.01675
G1 X152.602 Y49.070 E0.24089
G1 X152.069 Y49.070 E0.01675
G1 X158.030 Y55.031 E0.26458
G1 X158.030 Y55.565 E0.01675
G1 X151.535 Y49.070 E0.28827
G1 X151.001 Y49.070 E0.01675
G1 X158.030 Y56.099 E0.31196
G1 X158.030 Y56.633 E0.01675
G1 X150.467 Y49.070 E0.33565
G1 X149.934 Y49.070 E0.01675
G1 X158.030 Y57.166 E0.35933
G1 X158.030 Y57.700 E0.01675
G1 X149.400 Y49.070 E0.38302
G1 X148.866 Y49.070 E0.01675
G1 X158.030 Y58.234 E0.40671
G1 X158.030 Y58.768 E0.01675
G1 X148.332 Y49.070 E0.43040
G1 X147.799 Y49.070 E0.01675
G1 X158.030 Y59.301 E0.45409
G1 X158.030 Y59.835 E0.01675
G1 X147.265 Y49.070 E0.47778
G1 X146.731 Y49.070 E0.01675
G1 X158.030 Y60.369 E0.50147
G1 X158.030 Y60.903 E0.01675
G1 X146.197 Y49.070 E0.52516
G1 X145.664 Y49.070 E0.01675
G1 X158.030 Y61.436 E0.54885
G1 X158.030 Y61.970 E0.01675
G1 X145.130 Y49.070 E0.57253
G1 X144.596 Y49.070 E0.01675
G1 X158.030 Y62.504 E0.59622
M73 P1 R168
G1 X158.030 Y63.038 E0.01675
G1 X144.062 Y49.070 E0.61991
M73 Q1 S170
G1 X143.529 Y49.070 E0.01675
G1 X158.030 Y63.571 E0.64360
G1 X158.030 Y64.105 E0.01675
G1 X142.995 Y49.070 E0.66729
G1 X142.461 Y49.070 E0.01675
G1 X158.030 Y64.639 E0.69098
G1 X158.030 Y65.173 E0.01675
G1 X141.927 Y49.070 E0.71467
G1 X141.394 Y49.070 E0.01675
G1 X158.030 Y65.706 E0.73836
G1 X158.030 Y66.240 E0.01675
G1 X140.860 Y49.070 E0.76205
G1 X140.326 Y49.070 E0.01675
G1 X158.030 Y66.774 E0.78574
G1 X158.030 Y67.308 E0.01675
G1 X139.792 Y49.070 E0.80942
G1 X139.259 Y49.070 E0.01675
G1 X158.030 Y67.841 E0.83311
G1 X158.030 Y68.375 E0.01675
G1 X138.725 Y49.070 E0.85680
G1 X138.191 Y49.070 E0.01675
G1 X158.030 Y68.909 E0.88049
M73 Q1 S169
G1 X158.030 Y69.443 E0.01675
G1 X137.657 Y49.070 E0.90418
G1 X137.124 Y49.070 E0.01675
G1 X158.030 Y69.976 E0.92787
G1 X158.030 Y70.510 E0.01675
G1 X136.590 Y49.070 E0.95156
G1 X136.056 Y49.070 E0.01675
G1 X158.030 Y71.044 E0.97525
G1 X158.030 Y71.578 E0.01675
G1 X135.522 Y49.070 E0.99894
G1 X134.989 Y49.070 E0.01675
G1 X158.030 Y72.111 E1.02263
G1 X158.030 Y72.645 E0.01675
G1 X134.455 Y49.070 E1.04631
G1 X133.921 Y49.070 E0.01675
G1 X158.030 Y73.179 E1.07000
G1 X158.030 Y73.713 E0.01675
G1 X133.387 Y49.070 E1.09369
G1 X132.854 Y49.070 E0.01675
G1 X158.030 Y74.246 E1.11738
M73 P1 R167
G1 X158.030 Y74.780 E0.01675
G1 X152.276 Y69.026 E0.25537
G1 X152.173 Y68.731 E0.00981
G1 X151.687 Y67.958 E0.02865
G1 X151.042 Y67.313 E0.02865
G1 X150.269 Y66.827 E0.02865
G1 X149.974 Y66.724 E0.00981
G1 X132.320 Y49.070 E0.78351
G1 X131.786 Y49.070 E0.01675
G1 X149.221 Y66.505 E0.77378
G1 X148.619 Y66.437 E0.01900
G1 X131.252 Y49.070 E0.77077
G1 X130.719 Y49.070 E0.01675
G1 X148.079 Y66.430 E0.77048
G1 X147.545 Y66.430 E0.01675
G1 X130.185 Y49.070 E0.77048
G1 X129.651 Y49.070 E0.01675
G1 X147.011 Y66.430 E0.77048
G1 X146.478 Y66.430 E0.01675
G1 X129.117 Y49.070 E0.77048
G1 X128.584 Y49.070 E0.01675
G1 X145.944 Y66.430 E0.77048
G1 X145.410 Y66.430 E0.01675
G1 X128.050 Y49.070 E0.77048
G1 X127.516 Y49.070 E0.01675
G1 X144.876 Y66.430 E0.77048
G1 X144.343 Y66.430 E0.01675
G1 X126.982 Y49.070 E0.77048
G1 X126.449 Y49.070 E0.01675
G1 X143.809 Y66.430 E0.77048
G1 X143.275 Y66.430 E0.01675
G1 X125.915 Y49.070 E0.77048
G1 X125.381 Y49.070 E0.01675
G1 X142.741 Y66.430 E0.77048
G1 X142.208 Y66.430 E0.01675
G1 X124.847 Y49.070 E0.77048
G1 X124.314 Y49.070 E0.01675
G1 X141.674 Y66.430 E0.77048
G1 X141.140 Y66.430 E0.01675
G1 X123.780 Y49.070 E0.77048
G1 X123.246 Y49.070 E0.01675
G1 X140.606 Y66.430 E0.77048
G1 X140.072 Y66.430 E0.01675
G1 X122.712 Y49.070 E0.77048
G1 X122.178 Y49.070 E0.01675
G1 X139.539 Y66.430 E0.77048
G1 X139.005 Y66.430 E0.01675
G1 X121.645 Y49.070 E0.77048
G1 X121.111 Y49.070 E0.01675
G1 X138.471 Y66.430 E0.77048
G1 X137.937 Y66.430 E0.01675
G1 X120.577 Y49.070 E0.77048
G1 X120.043 Y49.070 E0.01675
G1 X137.404 Y66.430 E0.77048
G1 X136.870 Y66.430 E0.01675
G1 X119.510 Y49.070 E0.77048
G1 X118.976 Y49.070 E0.01675
G1 X136.336 Y66.430 E0.77048
G1 X135.802 Y66.430 E0.01675
G1 X118.442 Y49.070 E0.77048
G1 X117.908 Y49.070 E0.01675
G1 X135.269 Y66.430 E0.77048
G1 X134.735 Y66.430 E0.01675
G1 X117.375 Y49.070 E0.77048
G1 X116.841 Y49.070 E0.01675
G1 X134.201 Y66.430 E0.77048
G1 X133.667 Y66.430 E0.01675
G1 X116.307 Y49.070 E0.77048
G1 X115.773 Y49.070 E0.01675
G1 X133.134 Y66.430 E0.77048
G1 X132.600 Y66.430 E0.01675
G1 X115.240 Y49.070 E0.77048
G1 X114.706 Y49.070 E0.01675
G1 X132.066 Y66.430 E0.77048
M73 Q1 S168
G1 X131.532 Y66.430 E0.01675
G1 X114.172 Y49.070 E0.77048
G1 X113.638 Y49.070 E0.01675
G1 X130.999 Y66.430 E0.77048
G1 X130.465 Y66.430 E0.01675
G1 X113.105 Y49.070 E0.77048
G1 X112.571 Y49.070 E0.01675
G1 X129.931 Y66.430 E0.77048
G1 X129.397 Y66.430 E0.01675
G1 X112.037 Y49.070 E0.77048
G1 X111.503 Y49.070 E0.01675
G1 X128.864 Y66.430 E0.77048
G1 X128.330 Y66.430 E0.01675
G1 X110.970 Y49.070 E0.77048
G1 X110.436 Y49.070 E0.01675
G1 X127.796 Y66.430 E0.77048
G1 X127.262 Y66.430 E0.01675
G1 X109.902 Y49.070 E0.77048
G1 X109.368 Y49.070 E0.01675
G1 X126.729 Y66.430 E0.77048
G1 X126.195 Y66.430 E0.01675
G1 X108.835 Y49.070 E0.77048
G1 X108.301 Y49.070 E0.01675
G1 X125.661 Y66.430 E0.77048
G1 X125.127 Y66.430 E0.01675
G1 X107.767 Y49.070 E0.77048
M73 P1 R166
G1 X107.233 Y49.070 E0.01675
G1 X124.594 Y66.430 E0.77048
G1 X124.060 Y66.430 E0.01675
G1 X106.700 Y49.070 E0.77048
G1 X106.166 Y49.070 E0.01675
G1 X123.526 Y66.430 E0.77048
G1 X122.992 Y66.430 E0.01675
G1 X105.632 Y49.070 E0.77048
G1 X105.098 Y49.070 E0.01675
G1 X122.459 Y66.430 E0.77048
G1 X121.925 Y66.430 E0.01675
G1 X104.565 Y49.070 E0.77048
G1 X104.031 Y49.070 E0.01675
G1 X121.391 Y66.430 E0.77048
G1 X120.857 Y66.430 E0.01675
G1 X103.497 Y49.070 E0.77048
G1 X102.963 Y49.070 E0.01675
G1 X120.324 Y66.430 E0.77048
M73 P2 R166
G1 X119.790 Y66.430 E0.01675
G1 X102.430 Y49.070 E0.77048
M73 Q2 S168
G1 X101.896 Y49.070 E0.01675
G1 X119.256 Y66.430 E0.77048
G1 X118.722 Y66.430 E0.01675
G1 X101.362 Y49.070 E0.77048
G1 X100.828 Y49.070 E0.01675
G1 X118.189 Y66.430 E0.77048
G1 X117.655 Y66.430 E0.01675
G1 X100.295 Y49.070 E0.77048
G1 X99.761 Y49.070 E0.01675
G1 X117.121 Y66.430 E0.77048
G1 X116.587 Y66.430 E0.01675
G1 X99.227 Y49.070 E0.77048
G1 X98.693 Y49.070 E0.01675
G1 X116.054 Y66.430 E0.77048
G1 X115.520 Y66.430 E0.01675
G1 X98.160 Y49.070 E0.77048
G1 X97.626 Y49.070 E0.01675
G1 X114.986 Y66.430 E0.77048
G1 X114.452 Y66.430 E0.01675
G1 X97.092 Y49.070 E0.77048
G1 X96.558 Y49.070 E0.01675
G1 X113.919 Y66.430 E0.77048
G1 X113.385 Y66.430 E0.01675
G1 X96.025 Y49.070 E0.77048
G1 X95.491 Y49.070 E0.01675
G1 X112.851 Y66.430 E0.77048
G1 X112.317 Y66.430 E0.01675
G1 X94.957 Y49.070 E0.77048
G1 X94.423 Y49.070 E0.01675
G1 X111.784 Y66.430 E0.77048
G1 X111.250 Y66.430 E0.01675
G1 X93.897 Y49.077 E0.77016
G1 X93.427 Y49.141 E0.01489
G1 X110.716 Y66.430 E0.76733
G1 X110.182 Y66.430 E0.01675
G1 X93.037 Y49.285 E0.76093
G1 X92.709 Y49.491 E0.01215
G1 X109.649 Y66.430 E0.75179
G1 X109.115 Y66.430 E0.01675
G1 X92.441 Y49.756 E0.74002
G1 X92.396 Y49.801 E0.00198
G1 X92.225 Y50.074 E0.01012
G1 X108.581 Y66.430 E0.72592
G1 X108.047 Y66.430 E0.01675
G1 X92.067 Y50.450 E0.70921
G1 X92.025 Y50.572 E0.00405
G1 X91.987 Y50.904 E0.01049
G1 X107.514 Y66.430 E0.68907
G1 X106.980 Y66.430 E0.01675
G1 X91.970 Y51.420 E0.66617
G1 X91.970 Y51.954 E0.01675
G1 X106.446 Y66.430 E0.64248
M73 Q2 S167
G1 X105.912 Y66.430 E0.01675
G1 X91.970 Y52.488 E0.61879
G1 X91.970 Y53.022 E0.01675
G1 X105.378 Y66.430 E0.59510
G1 X104.845 Y66.430 E0.01675
G1 X91.970 Y53.555 E0.57141
G1 X91.970 Y54.089 E0.01675
G1 X104.311 Y66.430 E0.54772
G1 X103.777 Y66.430 E0.01675
G1 X91.970 Y54.623 E0.52403
G1 X91.970 Y55.157 E0.01675
G1 X103.243 Y66.430 E0.50034
G1 X102.710 Y66.430 E0.01675
G1 X91.970 Y55.690 E0.47665
G1 X91.970 Y56.224 E0.01675
G1 X102.176 Y66.430 E0.45296
G1 X101.642 Y66.430 E0.01675
G1 X91.970 Y56.758 E0.42928
G1 X91.970 Y57.292 E0.01675
G1 X101.142 Y66.464 E0.40708
G1 X100.662 Y66.518 E0.01515
G1 X91.970 Y57.825 E0.38579
