; generated by PrusaSlicer 2.3.3+win64 on 2022-01-05 at 07:51:08 UTC

; 

; external perimeters extrusion width = 0.45mm
; perimeters extrusion width = 0.45mm
; infill extrusion width = 0.45mm
; solid infill extrusion width = 0.45mm
; top infill extrusion width = 0.40mm
; first layer extrusion width = 0.42mm

M73 P0 R99
M73 Q0 S100
M201 X1000 Y1000 Z200 E5000 ; sets maximum accelerations, mm/sec^2
M203 X200 Y200 Z12 E120 ; sets maximum feedrates, mm/sec
M204 P1250 R1250 T1250 ; sets acceleration (P, T) and retract acceleration (R), mm/sec^2
M205 X8.00 Y8.00 Z0.40 E4.50 ; sets the jerk limits, mm/sec
M205 S0 T0 ; sets the minimum extruding and travel feed rate, mm/sec
M107
;TYPE:Custom
M862.3 P "MK3S" ; printer model check
M862.1 P0.4 ; nozzle diameter check
M115 U3.9.3 ; tell printer latest fw version
G90 ; use absolute coordinates
M83 ; extruder relative mode
M104 S215 ; set extruder temp
M140 S60 ; set bed temp
M190 S60 ; wait for bed temp
M109 S215 ; wait for extruder temp
G28 W ; home all without mesh bed level
G80 ; mesh bed leveling
G1 Y-3.0 F1000.0 ; go outside print area
G92 E0.0
G1 X60.0 E9.0 F1000.0 ; intro line
G1 X100.0 E12.5 F1000.0 ; intro line
G92 E0.0
M221 S95

; Don't change E values below. Excessive value can damage the printer.
M907 E430 ; set extruder motor current
G21 ; set units to millimeters
G90 ; use absolute coordinates
M83 ; use relative distances for extrusion
M900 K0.05 ; Filament gcode LA 1.5
M900 K30 ; Filament gcode LA 1.0
;LAYER_CHANGE
;Z:0.2
;HEIGHT:0.2
;BEFORE_LAYER_CHANGE
G92 E0.0
;0.2


G1 E-0.80000 F2100.000
G1 Z0.400 F10800.000
;AFTER_LAYER_CHANGE
;0.2
G1 X89.414 Y39.800
G1 Z0.200
G1 E0.80000 F2100.000
M204 S1000
;TYPE:Skirt
;WIDTH:0.42
G1 F1200.000
G1 X90.153 Y38.417 E0.04916
G1 X90.956 Y37.330 E0.04236
G1 X92.233 Y36.054 E0.05663
G1 X93.307 Y35.259 E0.04189
G1 X94.615 Y34.549 E0.04666
G1 X95.993 Y34.039 E0.04607
G1 X97.523 Y33.716 E0.04904
G1 X98.894 Y33.623 E0.04308
G1 X151.070 Y33.623 E1.63593
G1 X152.704 Y33.753 E0.05141
G1 X154.429 Y34.189 E0.05577
G1 X155.755 Y34.743 E0.04506
G1 X156.996 Y35.490 E0.04542
G1 X158.360 Y36.619 E0.05553
G1 X159.442 Y37.875 E0.05198
G1 X160.356 Y39.388 E0.05542
G1 X160.913 Y40.725 E0.04542
G1 X161.266 Y42.122 E0.04518
G1 X161.436 Y43.763 E0.05172
G1 X161.477 Y162.111 E3.71073
G1 X161.435 Y166.266 E0.13027
G1 X161.298 Y167.736 E0.04628
G1 X160.867 Y169.403 E0.05399
G1 X160.279 Y170.776 E0.04685
G1 X159.433 Y172.139 E0.05031
G1 X158.384 Y173.358 E0.05043
G1 X157.258 Y174.323 E0.04649
G1 X155.788 Y175.241 E0.05434
G1 X154.431 Y175.811 E0.04613
G1 X152.530 Y176.270 E0.06134
G1 X151.070 Y176.377 E0.04589
G1 X98.870 Y176.377 E1.63670
M73 Q0 S99
G1 X97.264 Y176.243 E0.05051
G1 X95.975 Y175.956 E0.04141
G1 X94.700 Y175.486 E0.04261
G1 X93.304 Y174.739 E0.04963
G1 X92.118 Y173.854 E0.04642
G1 X91.061 Y172.800 E0.04678
G1 X90.184 Y171.631 E0.04583
G1 X89.463 Y170.316 E0.04702
G1 X88.947 Y168.937 E0.04618
G1 X88.630 Y167.486 E0.04654
G1 X88.525 Y166.094 E0.04380
G1 X88.523 Y43.985 E3.82863
G1 X88.656 Y42.368 E0.05087
G1 X88.944 Y41.075 E0.04153
G1 X89.393 Y39.856 E0.04073
; printing object scmp_base.stl id:0 copy 0
;WIPE_START
G1 F8640.000
G1 X90.153 Y38.417 E-0.37572
G1 X90.956 Y37.330 E-0.31198
G1 X91.177 Y37.109 E-0.07229
;WIPE_END
G1 E-0.04000 F2100.000
G1 Z0.600 F10800.000
G1 X99.277 Y165.401
G1 Z0.200
G1 E0.80000 F2100.000
;TYPE:Perimeter
G1 F1200.000
G1 X99.948 Y165.313 E0.02124
G1 X150.052 Y165.313 E1.57095
G1 X150.723 Y165.401 E0.02124
G1 X151.397 Y165.680 E0.02287
G1 X151.976 Y166.124 E0.02287
G1 X152.420 Y166.703 E0.02287
G1 X152.699 Y167.377 E0.02287
G1 X152.794 Y168.100 E0.02287
G1 X152.699 Y168.823 E0.02287
G1 X152.472 Y169.371 E0.01860
G1 X152.420 Y169.497 E0.00427
G1 X151.976 Y170.076 E0.02287
G1 X151.397 Y170.520 E0.02287
G1 X150.723 Y170.799 E0.02287
G1 X150.052 Y170.887 E0.02124
G1 X99.948 Y170.887 E1.57095
G1 X99.277 Y170.799 E0.02124
G1 X98.603 Y170.520 E0.02287
G1 X98.024 Y170.076 E0.02287
G1 X97.580 Y169.497 E0.02287
G1 X97.301 Y168.823 E0.02287
G1 X97.206 Y168.100 E0.02287
G1 X97.301 Y167.377 E0.02287
G1 X97.580 Y166.703 E0.02287
G1 X98.024 Y166.124 E0.02287
G1 X98.603 Y165.680 E0.02287
G1 X99.221 Y165.424 E0.02099
G1 X99.366 Y165.773 F10800.000
;TYPE:External perimeter
G1 F1200.000
G1 X99.973 Y165.690 E0.01922
G1 X150.027 Y165.690 E1.56940
G1 X150.625 Y165.769 E0.01891
G1 X151.207 Y166.010 E0.01976
G1 X151.707 Y166.393 E0.01976
G1 X152.090 Y166.893 E0.01976
G1 X152.331 Y167.475 E0.01976
G1 X152.414 Y168.100 E0.01976
G1 X152.331 Y168.725 E0.01976
G1 X152.123 Y169.227 E0.01704
G1 X152.090 Y169.307 E0.00272
G1 X151.707 Y169.807 E0.01975
G1 X151.207 Y170.190 E0.01976
G1 X150.625 Y170.431 E0.01976
G1 X150.027 Y170.510 E0.01891
G1 X99.973 Y170.510 E1.56940
M73 P0 R98
G1 X99.375 Y170.431 E0.01891
G1 X98.793 Y170.190 E0.01976
G1 X98.293 Y169.807 E0.01975
G1 X97.910 Y169.307 E0.01976
G1 X97.669 Y168.725 E0.01976
G1 X97.586 Y168.100 E0.01976
G1 X97.669 Y167.475 E0.01975
G1 X97.910 Y166.893 E0.01976
G1 X98.293 Y166.393 E0.01976
G1 X98.793 Y166.010 E0.01975
G1 X99.310 Y165.796 E0.01755
G1 X99.468 Y165.386 F10800.000
;WIPE_START
G1 F8640.000
G1 X99.973 Y165.690 E-0.15497
G1 X102.593 Y165.690 E-0.60503
;WIPE_END
G1 E-0.04000 F2100.000
G1 Z0.600 F10800.000
G1 X99.277 Y44.799
G1 Z0.200
G1 E0.80000 F2100.000
;TYPE:Perimeter
G1 F1200.000
G1 X98.603 Y44.520 E0.02287
G1 X98.024 Y44.076 E0.02287
G1 X97.580 Y43.497 E0.02287
G1 X97.301 Y42.823 E0.02287
G1 X97.206 Y42.100 E0.02287
G1 X97.301 Y41.377 E0.02287
G1 X97.580 Y40.703 E0.02287
G1 X98.024 Y40.124 E0.02287
G1 X98.603 Y39.680 E0.02287
G1 X99.277 Y39.401 E0.02287
G1 X99.948 Y39.313 E0.02124
G1 X150.052 Y39.313 E1.57095
G1 X150.723 Y39.401 E0.02124
G1 X151.397 Y39.680 E0.02287
G1 X151.976 Y40.124 E0.02287
G1 X152.420 Y40.703 E0.02287
G1 X152.699 Y41.377 E0.02287
G1 X152.794 Y42.100 E0.02287
G1 X152.699 Y42.823 E0.02287
G1 X152.472 Y43.371 E0.01860
G1 X152.420 Y43.497 E0.00427
G1 X151.976 Y44.076 E0.02287
G1 X151.397 Y44.520 E0.02287
G1 X150.723 Y44.799 E0.02287
G1 X150.052 Y44.887 E0.02124
G1 X99.948 Y44.887 E1.57095
G1 X99.336 Y44.807 E0.01936
G1 X99.386 Y44.433 F10800.000
;TYPE:External perimeter
G1 F1200.000
G1 X98.793 Y44.190 E0.02007
G1 X98.293 Y43.807 E0.01976
G1 X97.910 Y43.307 E0.01975
G1 X97.669 Y42.725 E0.01976
G1 X97.586 Y42.100 E0.01976
G1 X97.669 Y41.475 E0.01976
G1 X97.910 Y40.893 E0.01976
G1 X98.293 Y40.393 E0.01976
G1 X98.793 Y40.010 E0.01976
G1 X99.375 Y39.769 E0.01975
G1 X99.973 Y39.690 E0.01891
G1 X150.027 Y39.690 E1.56940
G1 X150.625 Y39.769 E0.01891
G1 X151.207 Y40.010 E0.01976
G1 X151.707 Y40.393 E0.01975
G1 X152.090 Y40.893 E0.01976
G1 X152.331 Y41.475 E0.01976
G1 X152.414 Y42.100 E0.01976
G1 X152.331 Y42.725 E0.01976
G1 X152.123 Y43.227 E0.01704
G1 X152.090 Y43.307 E0.00272
G1 X151.707 Y43.807 E0.01975
G1 X151.207 Y44.190 E0.01976
G1 X150.625 Y44.431 E0.01976
G1 X150.027 Y44.510 E0.01891
G1 X99.973 Y44.510 E1.56940
G1 X99.445 Y44.440 E0.01670
G1 X99.103 Y44.716 F10800.000
;WIPE_START
G1 F8640.000
G1 X98.793 Y44.190 E-0.16123
G1 X98.293 Y43.807 E-0.14548
G1 X97.910 Y43.307 E-0.14548
G1 X97.669 Y42.725 E-0.14548
G1 X97.586 Y42.100 E-0.14548
G1 X97.596 Y42.028 E-0.01684
;WIPE_END
G1 E-0.04000 F2100.000
G1 Z0.600 F10800.000
G1 X97.874 Y36.862
G1 Z0.200
G1 E0.80000 F2100.000
;TYPE:Perimeter
G1 F1200.000
G1 X98.928 Y36.787 E0.03314
G1 X151.035 Y36.787 E1.63378
G1 X152.188 Y36.877 E0.03626
G1 X153.283 Y37.139 E0.03529
G1 X154.323 Y37.567 E0.03529
G1 X155.285 Y38.153 E0.03529
G1 X156.143 Y38.880 E0.03529
G1 X156.878 Y39.733 E0.03529
G1 X157.471 Y40.689 E0.03529
G1 X157.909 Y41.727 E0.03529
G1 X158.179 Y42.819 E0.03529
G1 X158.279 Y43.971 E0.03626
G1 X158.313 Y48.103 E0.12956
G1 X158.313 Y162.097 E3.57418
M73 P1 R98
M73 Q1 S99
G1 X158.280 Y166.030 E0.12333
G1 X158.180 Y167.182 E0.03625
G1 X157.909 Y168.274 E0.03529
G1 X157.472 Y169.311 E0.03529
G1 X156.879 Y170.268 E0.03529
G1 X156.144 Y171.120 E0.03529
G1 X155.286 Y171.848 E0.03529
G1 X154.324 Y172.433 E0.03529
G1 X153.284 Y172.861 E0.03529
G1 X152.189 Y173.123 E0.03529
G1 X151.036 Y173.213 E0.03625
G1 X98.928 Y173.213 E1.63381
G1 X97.874 Y173.138 E0.03314
G1 X96.868 Y172.919 E0.03226
G1 X95.904 Y172.559 E0.03226
G1 X95.001 Y172.066 E0.03226
G1 X94.178 Y171.450 E0.03226
G1 X93.450 Y170.722 E0.03226
G1 X92.834 Y169.899 E0.03226
G1 X92.341 Y168.996 E0.03226
G1 X91.981 Y168.032 E0.03226
G1 X91.762 Y167.026 E0.03226
G1 X91.687 Y165.972 E0.03314
G1 X91.687 Y44.028 E3.82346
G1 X91.762 Y42.974 E0.03314
G1 X91.981 Y41.968 E0.03226
G1 X92.341 Y41.004 E0.03226
G1 X92.834 Y40.101 E0.03226
G1 X93.450 Y39.278 E0.03226
G1 X94.178 Y38.550 E0.03226
G1 X95.001 Y37.934 E0.03226
G1 X95.904 Y37.441 E0.03226
G1 X96.868 Y37.081 E0.03226
G1 X97.815 Y36.875 E0.03038
G1 X97.735 Y36.507 F10800.000
;TYPE:External perimeter
G1 F1200.000
G1 X98.915 Y36.410 E0.03711
G1 X151.050 Y36.410 E1.63466
G1 X152.247 Y36.504 E0.03764
G1 X153.399 Y36.779 E0.03714
G1 X154.494 Y37.230 E0.03714
G1 X155.506 Y37.846 E0.03714
G1 X156.410 Y38.612 E0.03714
G1 X157.183 Y39.509 E0.03714
G1 X157.807 Y40.516 E0.03714
G1 X158.268 Y41.607 E0.03714
G1 X158.552 Y42.757 E0.03714
G1 X158.656 Y43.953 E0.03765
G1 X158.690 Y48.102 E0.13007
G1 X158.690 Y162.098 E3.57428
M73 Q1 S98
G1 X158.657 Y166.048 E0.12384
G1 X158.553 Y167.244 E0.03764
G1 X158.268 Y168.394 E0.03714
G1 X157.808 Y169.485 E0.03714
G1 X157.184 Y170.491 E0.03714
G1 X156.410 Y171.389 E0.03714
G1 X155.507 Y172.154 E0.03714
G1 X154.495 Y172.770 E0.03714
G1 X153.400 Y173.221 E0.03714
G1 X152.248 Y173.496 E0.03714
G1 X151.051 Y173.590 E0.03764
G1 X98.915 Y173.590 E1.63470
G1 X97.820 Y173.512 E0.03441
G1 X96.762 Y173.282 E0.03395
G1 X95.747 Y172.903 E0.03395
G1 X94.797 Y172.384 E0.03395
G1 X93.930 Y171.735 E0.03395
G1 X93.165 Y170.970 E0.03395
G1 X92.516 Y170.103 E0.03395
G1 X91.997 Y169.153 E0.03395
G1 X91.618 Y168.138 E0.03395
G1 X91.388 Y167.080 E0.03395
G1 X91.310 Y165.985 E0.03441
G1 X91.310 Y44.015 E3.82431
G1 X91.388 Y42.920 E0.03441
G1 X91.618 Y41.862 E0.03395
G1 X91.997 Y40.847 E0.03395
G1 X92.516 Y39.897 E0.03395
G1 X93.165 Y39.030 E0.03395
G1 X93.930 Y38.265 E0.03395
G1 X94.797 Y37.616 E0.03395
G1 X95.747 Y37.097 E0.03395
G1 X96.762 Y36.718 E0.03395
G1 X97.676 Y36.520 E0.02934
G1 X97.985 Y36.819 F10800.000
;WIPE_START
G1 F8640.000
G1 X98.915 Y36.410 E-0.28704
G1 X100.963 Y36.410 E-0.47296
;WIPE_END
G1 E-0.04000 F2100.000
G1 Z0.600 F10800.000
G1 X157.590 Y41.261
G1 Z0.200
G1 E0.80000 F2100.000
;TYPE:Solid infill
;WIDTH:0.420304
G1 F1200.000
G1 X154.117 Y37.788 E0.15412
G1 X153.209 Y37.414 E0.03079
G1 X157.649 Y41.854 E0.19701
G1 X157.824 Y42.563 E0.02293
G1 X152.505 Y37.244 E0.23606
G1 X152.144 Y37.158 E0.01165
G1 X151.863 Y37.136 E0.00884
G1 X157.928 Y43.201 E0.26915
G1 X157.979 Y43.785 E0.01840
G1 X151.284 Y37.090 E0.29710
G1 X150.730 Y37.070 E0.01740
G1 X157.999 Y44.339 E0.32258
G1 X158.003 Y44.877 E0.01689
G1 X150.196 Y37.070 E0.34646
G1 X149.663 Y37.070 E0.01675
G1 X158.008 Y45.415 E0.37034
G1 X158.012 Y45.953 E0.01689
G1 X149.129 Y37.070 E0.39423
G1 X148.595 Y37.070 E0.01675
G1 X150.629 Y39.104 E0.09026
G1 X150.022 Y39.030 E0.01920
G1 X148.061 Y37.070 E0.08699
M73 P1 R97
G1 X147.528 Y37.070 E0.01675
G1 X149.488 Y39.030 E0.08699
G1 X148.954 Y39.030 E0.01675
G1 X146.994 Y37.070 E0.08699
G1 X146.460 Y37.070 E0.01675
G1 X148.421 Y39.030 E0.08699
G1 X147.887 Y39.030 E0.01675
G1 X145.927 Y37.070 E0.08699
G1 X145.393 Y37.070 E0.01675
G1 X147.353 Y39.030 E0.08699
G1 X146.820 Y39.030 E0.01675
G1 X144.859 Y37.070 E0.08699
G1 X144.326 Y37.070 E0.01675
G1 X146.286 Y39.030 E0.08699
G1 X145.752 Y39.030 E0.01675
G1 X143.792 Y37.070 E0.08699
G1 X143.258 Y37.070 E0.01675
G1 X145.218 Y39.030 E0.08699
G1 X144.685 Y39.030 E0.01675
G1 X142.724 Y37.070 E0.08699
G1 X142.191 Y37.070 E0.01675
G1 X144.151 Y39.030 E0.08699
G1 X143.617 Y39.030 E0.01675
G1 X141.657 Y37.070 E0.08699
G1 X141.123 Y37.070 E0.01675
G1 X143.084 Y39.030 E0.08699
G1 X142.550 Y39.030 E0.01675
G1 X140.590 Y37.070 E0.08699
G1 X140.056 Y37.070 E0.01675
G1 X142.016 Y39.030 E0.08699
G1 X141.483 Y39.030 E0.01675
G1 X139.522 Y37.070 E0.08699
G1 X138.989 Y37.070 E0.01675
G1 X140.949 Y39.030 E0.08699
G1 X140.415 Y39.030 E0.01675
G1 X138.455 Y37.070 E0.08699
G1 X137.921 Y37.070 E0.01675
G1 X139.881 Y39.030 E0.08699
G1 X139.348 Y39.030 E0.01675
G1 X137.387 Y37.070 E0.08699
G1 X136.854 Y37.070 E0.01675
G1 X138.814 Y39.030 E0.08699
G1 X138.280 Y39.030 E0.01675
G1 X136.320 Y37.070 E0.08699
G1 X135.786 Y37.070 E0.01675
G1 X137.747 Y39.030 E0.08699
G1 X137.213 Y39.030 E0.01675
G1 X135.253 Y37.070 E0.08699
G1 X134.719 Y37.070 E0.01675
G1 X136.679 Y39.030 E0.08699
G1 X136.145 Y39.030 E0.01675
G1 X134.185 Y37.070 E0.08699
G1 X133.652 Y37.070 E0.01675
G1 X135.612 Y39.030 E0.08699
G1 X135.078 Y39.030 E0.01675
G1 X133.118 Y37.070 E0.08699
G1 X132.584 Y37.070 E0.01675
G1 X134.544 Y39.030 E0.08699
G1 X134.011 Y39.030 E0.01675
G1 X132.050 Y37.070 E0.08699
G1 X131.517 Y37.070 E0.01675
G1 X133.477 Y39.030 E0.08699
G1 X132.943 Y39.030 E0.01675
G1 X130.983 Y37.070 E0.08699
G1 X130.449 Y37.070 E0.01675
G1 X132.410 Y39.030 E0.08699
G1 X131.876 Y39.030 E0.01675
G1 X129.916 Y37.070 E0.08699
G1 X129.382 Y37.070 E0.01675
G1 X131.342 Y39.030 E0.08699
G1 X130.808 Y39.030 E0.01675
G1 X128.848 Y37.070 E0.08699
G1 X128.315 Y37.070 E0.01675
G1 X130.275 Y39.030 E0.08699
G1 X129.741 Y39.030 E0.01675
G1 X127.781 Y37.070 E0.08699
G1 X127.247 Y37.070 E0.01675
G1 X129.207 Y39.030 E0.08699
G1 X128.674 Y39.030 E0.01675
G1 X126.713 Y37.070 E0.08699
G1 X126.180 Y37.070 E0.01675
G1 X128.140 Y39.030 E0.08699
G1 X127.606 Y39.030 E0.01675
G1 X125.646 Y37.070 E0.08699
G1 X125.112 Y37.070 E0.01675
G1 X127.073 Y39.030 E0.08699
G1 X126.539 Y39.030 E0.01675
G1 X124.579 Y37.070 E0.08699
G1 X124.045 Y37.070 E0.01675
G1 X126.005 Y39.030 E0.08699
G1 X125.471 Y39.030 E0.01675
G1 X123.511 Y37.070 E0.08699
G1 X122.978 Y37.070 E0.01675
G1 X124.938 Y39.030 E0.08699
G1 X124.404 Y39.030 E0.01675
G1 X122.444 Y37.070 E0.08699
G1 X121.910 Y37.070 E0.01675
G1 X123.870 Y39.030 E0.08699
G1 X123.337 Y39.030 E0.01675
G1 X121.376 Y37.070 E0.08699
G1 X120.843 Y37.070 E0.01675
G1 X122.803 Y39.030 E0.08699
G1 X122.269 Y39.030 E0.01675
G1 X120.309 Y37.070 E0.08699
G1 X119.775 Y37.070 E0.01675
G1 X121.736 Y39.030 E0.08699
G1 X121.202 Y39.030 E0.01675
G1 X119.242 Y37.070 E0.08699
G1 X118.708 Y37.070 E0.01675
G1 X120.668 Y39.030 E0.08699
G1 X120.134 Y39.030 E0.01675
G1 X118.174 Y37.070 E0.08699
G1 X117.641 Y37.070 E0.01675
G1 X119.601 Y39.030 E0.08699
G1 X119.067 Y39.030 E0.01675
G1 X117.107 Y37.070 E0.08699
G1 X116.573 Y37.070 E0.01675
G1 X118.533 Y39.030 E0.08699
G1 X118.000 Y39.030 E0.01675
G1 X116.039 Y37.070 E0.08699
G1 X115.506 Y37.070 E0.01675
G1 X117.466 Y39.030 E0.08699
G1 X116.932 Y39.030 E0.01675
G1 X114.972 Y37.070 E0.08699
G1 X114.438 Y37.070 E0.01675
G1 X116.399 Y39.030 E0.08699
G1 X115.865 Y39.030 E0.01675
G1 X113.905 Y37.070 E0.08699
G1 X113.371 Y37.070 E0.01675
G1 X115.331 Y39.030 E0.08699
G1 X114.797 Y39.030 E0.01675
G1 X112.837 Y37.070 E0.08699
G1 X112.303 Y37.070 E0.01675
G1 X114.264 Y39.030 E0.08699
G1 X113.730 Y39.030 E0.01675
G1 X111.770 Y37.070 E0.08699
G1 X111.236 Y37.070 E0.01675
G1 X113.196 Y39.030 E0.08699
G1 X112.663 Y39.030 E0.01675
G1 X110.702 Y37.070 E0.08699
G1 X110.169 Y37.070 E0.01675
G1 X112.129 Y39.030 E0.08699
G1 X111.595 Y39.030 E0.01675
G1 X109.635 Y37.070 E0.08699
G1 X109.101 Y37.070 E0.01675
G1 X111.062 Y39.030 E0.08699
G1 X110.528 Y39.030 E0.01675
G1 X108.568 Y37.070 E0.08699
G1 X108.034 Y37.070 E0.01675
G1 X109.994 Y39.030 E0.08699
G1 X109.460 Y39.030 E0.01675
G1 X107.500 Y37.070 E0.08699
G1 X106.966 Y37.070 E0.01675
G1 X108.927 Y39.030 E0.08699
G1 X108.393 Y39.030 E0.01675
G1 X106.433 Y37.070 E0.08699
G1 X105.899 Y37.070 E0.01675
G1 X107.859 Y39.030 E0.08699
G1 X107.326 Y39.030 E0.01675
G1 X105.365 Y37.070 E0.08699
G1 X104.832 Y37.070 E0.01675
G1 X106.792 Y39.030 E0.08699
G1 X106.258 Y39.030 E0.01675
G1 X104.298 Y37.070 E0.08699
G1 X103.764 Y37.070 E0.01675
G1 X105.725 Y39.030 E0.08699
G1 X105.191 Y39.030 E0.01675
G1 X103.231 Y37.070 E0.08699
G1 X102.697 Y37.070 E0.01675
